public/assets/images/Aqords-logo.svg

<svg width="835" height="65" viewBox="0 0 835 65" fill="none" xmlns="http://www.w3.org/2000/svg">
<path d="M33.8603 46.5803H36.4394C36.5545 46.5784 36.6676 46.5494 36.7694 46.4956C36.8712 46.4417 36.9589 46.3645 37.0254 46.2703C37.0918 46.1762 37.1352 46.0676 37.1519 45.9535C37.1686 45.8394 37.1582 45.723 37.1216 45.6137L34.3762 37.8306C34.3252 37.69 34.2326 37.5683 34.1107 37.4819C33.9887 37.3955 33.8433 37.3486 33.694 37.3473H12.9119C12.7599 37.3473 12.6118 37.3957 12.4892 37.4856C12.3665 37.5755 12.2756 37.7022 12.2297 37.8473L9.53414 45.6137C9.49749 45.723 9.4871 45.8394 9.50382 45.9535C9.52053 46.0676 9.56389 46.1762 9.63035 46.2703C9.69681 46.3645 9.78451 46.4417 9.88633 46.4956C9.98815 46.5494 10.1012 46.5784 10.2163 46.5803H13.5441C13.7355 46.5802 13.9192 46.6552 14.056 46.7891C14.1929 46.9231 14.2719 47.1053 14.2763 47.2969V49.7468C14.2763 49.9413 14.1991 50.1278 14.0618 50.2653C13.9245 50.4029 13.7383 50.4801 13.5441 50.4801H0.732116C0.537947 50.4801 0.35173 50.4029 0.214432 50.2653C0.0771334 50.1278 2.61694e-08 49.9413 2.61694e-08 49.7468V47.2969C-2.57682e-05 47.2014 0.0190172 47.1068 0.0560093 47.0188C0.0930014 46.9307 0.147196 46.851 0.215406 46.7842C0.283617 46.7174 0.364467 46.665 0.453202 46.63C0.541937 46.595 0.636767 46.5781 0.732116 46.5803H4.15975C4.30968 46.5815 4.4562 46.5355 4.57861 46.4488C4.70102 46.362 4.79314 46.239 4.84195 46.097L20.9984 1.29881C21.0434 1.16268 21.1273 1.04274 21.2397 0.953876C21.3521 0.86501 21.488 0.811107 21.6307 0.798828H24.9585C25.1073 0.802354 25.2516 0.850218 25.3732 0.936304C25.4947 1.02239 25.5878 1.14278 25.6407 1.28213L42.2797 46.0803C42.3326 46.2197 42.4257 46.34 42.5472 46.4261C42.6687 46.5122 42.8131 46.5601 42.9619 46.5636H46.6225C46.8138 46.5636 46.9975 46.6385 47.1343 46.7725C47.2712 46.9064 47.3502 47.0887 47.3546 47.2803V49.7301C47.3546 49.9246 47.2774 50.1111 47.1401 50.2487C47.0028 50.3862 46.8166 50.4634 46.6225 50.4634H33.8603C33.6691 50.4591 33.4871 50.3799 33.3534 50.2429C33.2197 50.1058 33.1448 49.9218 33.1449 49.7301V47.2969C33.1449 47.1068 33.2203 46.9246 33.3544 46.7902C33.4886 46.6558 33.6706 46.5803 33.8603 46.5803ZM14.609 33.8141H31.8969C32.0141 33.8132 32.1292 33.7841 32.2328 33.7293C32.3363 33.6745 32.4253 33.5957 32.4921 33.4993C32.5589 33.403 32.6017 33.292 32.6169 33.1757C32.632 33.0594 32.6191 32.9411 32.5791 32.8308L23.7771 8.16519C23.7313 8.01996 23.6404 7.89313 23.5178 7.80311C23.3951 7.7131 23.247 7.66457 23.0949 7.66457C22.9429 7.66457 22.7947 7.7131 22.6721 7.80311C22.5494 7.89313 22.4586 8.01996 22.4127 8.16519L13.9268 32.8475C13.8902 32.9568 13.8798 33.0733 13.8965 33.1874C13.9132 33.3015 13.9566 33.41 14.023 33.5042C14.0895 33.5984 14.1772 33.6756 14.279 33.7294C14.3808 33.7833 14.4939 33.8123 14.609 33.8141Z" fill="#E5E5E5"/>
<path d="M338.753 0.532227C350.284 0.532227 359.635 6.34866 359.635 25.7979C359.635 41.6139 350.284 50.7968 338.753 50.7968C327.222 50.7968 317.805 45.0137 317.805 25.7979C317.805 9.98185 327.206 0.532227 338.753 0.532227ZM338.753 46.497C347.605 46.497 354.826 39.1307 354.826 25.6479C354.826 9.68186 347.605 4.79871 338.753 4.79871C329.901 4.79871 322.68 12.2484 322.68 25.6479C322.68 41.8139 329.901 46.497 338.753 46.497Z" fill="#E5E5E5"/>
<path d="M476.359 1.54923C476.359 1.35474 476.437 1.16822 476.574 1.0307C476.711 0.893181 476.897 0.815918 477.091 0.815918H493.431C502.915 0.815918 508.656 4.93243 508.656 13.5154C508.656 19.2652 503.747 25.7149 500.519 27.9815C500.369 28.0863 500.264 28.245 500.227 28.4249C500.19 28.6048 500.223 28.7921 500.32 28.9481L510.919 46.2308C510.983 46.3365 511.074 46.424 511.181 46.4852C511.289 46.5464 511.41 46.5793 511.534 46.5807H515.444C515.634 46.5807 515.816 46.6562 515.95 46.7906C516.084 46.925 516.16 47.1073 516.16 47.2974V49.7473C516.16 49.9389 516.085 50.1229 515.951 50.26C515.818 50.397 515.636 50.4762 515.444 50.4806H508.789C508.665 50.4791 508.544 50.4463 508.436 50.385C508.328 50.3238 508.238 50.2363 508.173 50.1306L495.993 30.4647C495.929 30.359 495.838 30.2714 495.731 30.2102C495.623 30.149 495.502 30.1162 495.378 30.1147H486.243C486.049 30.1147 485.863 30.192 485.725 30.3295C485.588 30.467 485.511 30.6535 485.511 30.848V45.8474C485.511 46.0419 485.588 46.2284 485.725 46.3659C485.863 46.5035 486.049 46.5807 486.243 46.5807H489.953C490.049 46.5785 490.144 46.5954 490.232 46.6304C490.321 46.6654 490.402 46.7179 490.47 46.7846C490.538 46.8514 490.593 46.9311 490.63 47.0192C490.667 47.1072 490.686 47.2018 490.686 47.2974V49.7473C490.686 49.9417 490.608 50.1283 490.471 50.2658C490.334 50.4033 490.148 50.4806 489.953 50.4806H477.108C476.914 50.4806 476.728 50.4033 476.59 50.2658C476.453 50.1283 476.376 49.9417 476.376 49.7473V47.2974C476.38 47.1058 476.459 46.9235 476.596 46.7896C476.733 46.6556 476.917 46.5807 477.108 46.5807H479.97C480.164 46.5807 480.35 46.5035 480.488 46.3659C480.625 46.2284 480.702 46.0419 480.702 45.8474V5.44906C480.698 5.25748 480.619 5.07523 480.482 4.94129C480.345 4.80736 480.161 4.73239 479.97 4.73243H477.108C476.914 4.73243 476.728 4.65517 476.59 4.51765C476.453 4.38013 476.376 4.19361 476.376 3.99913L476.359 1.54923ZM485.494 5.44906V25.4482C485.499 25.6398 485.578 25.8221 485.714 25.956C485.851 26.09 486.035 26.1649 486.226 26.1649H496.909C497.086 26.1645 497.258 26.0993 497.391 25.9816C499.238 24.315 503.847 19.7652 503.847 13.8987C503.847 8.0323 500.02 4.68244 493.082 4.68244H486.226C486.127 4.68234 486.029 4.70234 485.938 4.74126C485.847 4.78018 485.765 4.83721 485.696 4.90887C485.628 4.98053 485.575 5.06536 485.54 5.15821C485.505 5.25107 485.49 5.34999 485.494 5.44906Z" fill="#E5E5E5"/>
<path d="M634.695 1.54923C634.695 1.35759 634.77 1.17355 634.904 1.0365C635.038 0.899448 635.22 0.820273 635.411 0.815918H651.75C663.398 0.815918 672.865 6.63235 672.865 24.515C672.865 46.2974 663.93 50.4806 649.987 50.4806H635.411C635.22 50.4762 635.038 50.397 634.904 50.26C634.77 50.1229 634.695 49.9389 634.695 49.7473V47.2974C634.695 47.2032 634.714 47.1101 634.75 47.0231C634.786 46.9362 634.839 46.8572 634.905 46.7906C634.971 46.7241 635.05 46.6713 635.137 46.6353C635.224 46.5993 635.317 46.5807 635.411 46.5807H638.289C638.478 46.5597 638.651 46.4663 638.772 46.3202C638.893 46.1741 638.952 45.9867 638.938 45.7974V5.44906C638.938 5.259 638.863 5.07673 638.729 4.94234C638.595 4.80794 638.413 4.73243 638.223 4.73243H635.344C635.153 4.72808 634.971 4.6489 634.837 4.51185C634.704 4.3748 634.629 4.19076 634.629 3.99913L634.695 1.54923ZM643.83 5.44906V45.7974C643.83 45.9891 643.905 46.1731 644.039 46.3101C644.172 46.4472 644.354 46.5264 644.546 46.5307H649.637C659.621 46.5307 668.04 44.6141 668.04 24.8649C668.04 9.61557 660.253 4.73243 651.401 4.73243H644.546C644.356 4.73243 644.174 4.80794 644.04 4.94234C643.906 5.07673 643.83 5.259 643.83 5.44906Z" fill="#E5E5E5"/>
<path d="M162.547 34.5139C160.797 34.5139 159.085 33.9939 157.629 33.0196C156.174 32.0454 155.039 30.6607 154.369 29.0406C153.699 27.4205 153.524 25.6377 153.865 23.9178C154.207 22.1979 155.05 20.6181 156.288 19.3781C157.526 18.1382 159.103 17.2937 160.82 16.9516C162.537 16.6095 164.317 16.7851 165.935 17.4562C167.552 18.1272 168.935 19.2636 169.907 20.7217C170.88 22.1798 171.399 23.894 171.399 25.6476C171.399 27.9991 170.467 30.2542 168.807 31.917C167.146 33.5798 164.895 34.5139 162.547 34.5139ZM162.547 21.4644C161.717 21.4644 160.906 21.7111 160.216 22.1734C159.526 22.6356 158.989 23.2925 158.672 24.0609C158.355 24.8293 158.273 25.6746 158.436 26.4897C158.599 27.3049 159 28.0532 159.588 28.6398C160.176 29.2265 160.925 29.6252 161.739 29.7854C162.554 29.9455 163.398 29.86 164.163 29.5396C164.929 29.2191 165.583 28.6782 166.042 27.9854C166.5 27.2925 166.744 26.4789 166.74 25.6476C166.74 25.0968 166.632 24.5515 166.421 24.0429C166.21 23.5343 165.901 23.0724 165.511 22.6837C165.122 22.2951 164.659 21.9873 164.151 21.778C163.642 21.5688 163.097 21.4622 162.547 21.4644Z" fill="url(#paint0_radial_169_2977)"/>
<path d="M202.131 25.7981C202.131 6.34886 192.78 0.53242 181.233 0.53242C177.725 0.516769 174.278 1.44994 171.256 3.23342C168.233 5.0169 165.748 7.58453 164.061 10.6653C164.003 10.7666 163.97 10.8806 163.966 10.9974C163.962 11.1142 163.987 11.2302 164.037 11.3354C164.088 11.4405 164.164 11.5317 164.258 11.6008C164.352 11.6699 164.462 11.7149 164.577 11.732C165.615 11.8754 166.636 12.1267 167.622 12.4819C167.778 12.5446 167.952 12.5487 168.111 12.4936C168.269 12.4385 168.403 12.3279 168.487 12.182C169.773 9.9347 171.629 8.06806 173.867 6.77141C176.106 5.47475 178.647 4.79423 181.233 4.79891C190.085 4.79891 197.306 9.68206 197.306 25.6481C197.306 39.1309 190.085 46.4972 181.233 46.4972C176.041 46.4972 171.416 44.8306 168.471 40.2641C168.384 40.1169 168.247 40.0058 168.085 39.9507C167.923 39.8957 167.747 39.9005 167.589 39.9641C166.513 40.3528 165.397 40.6156 164.261 40.7474C164.143 40.7633 164.031 40.8083 163.935 40.8785C163.839 40.9486 163.762 41.0417 163.71 41.1492C163.659 41.2568 163.635 41.3754 163.642 41.4944C163.648 41.6134 163.683 41.729 163.745 41.8307C166.94 47.5138 172.065 50.0137 178.155 50.5804C178.296 50.5915 178.43 50.6452 178.54 50.7345C178.65 50.8238 178.73 50.9444 178.77 51.0804C180.667 56.8635 186.424 62.0299 189.968 64.5132C190.109 64.6114 190.281 64.653 190.451 64.6298L192.497 64.4298C192.641 64.4145 192.778 64.3568 192.889 64.2639C193 64.171 193.082 64.0471 193.123 63.908C193.164 63.7688 193.162 63.6206 193.119 63.4821C193.076 63.3435 192.993 63.221 192.88 63.1299C189.552 60.5966 185.16 56.4635 183.429 51.4637C183.396 51.3614 183.387 51.2532 183.401 51.1468C183.416 51.0404 183.454 50.9386 183.513 50.849C183.572 50.7594 183.651 50.6842 183.743 50.629C183.835 50.5739 183.938 50.5402 184.045 50.5304C194.228 49.2638 202.131 40.3475 202.131 25.7981Z" fill="#E5E5E5"/>
<path d="M799.827 13.2347C799.827 7.26823 805.7 4.90166 812.223 4.90166C814.792 4.89087 817.358 5.09717 819.893 5.51832C820.049 5.54732 820.191 5.62375 820.301 5.73715C820.412 5.85054 820.484 5.99531 820.509 6.15161L821.091 10.7181C821.105 10.8149 821.139 10.9079 821.189 10.9917C821.24 11.0754 821.307 11.1482 821.386 11.2056C821.465 11.2631 821.555 11.3041 821.65 11.3263C821.745 11.3485 821.844 11.3513 821.94 11.3347L824.003 11.0014C824.182 10.9689 824.343 10.8706 824.454 10.7258C824.565 10.5809 824.618 10.3999 824.602 10.2181L823.937 2.55177C823.921 2.3983 823.858 2.25353 823.756 2.13721C823.655 2.02089 823.521 1.93868 823.371 1.9018C819.41 0.949677 815.347 0.49066 811.274 0.53518C807.464 0.635175 800.06 1.61846 796.749 6.98491C795.572 8.93344 794.966 11.1743 795.001 13.4513C795.001 23.7342 806 24.5509 814.086 27.3674C814.204 27.4061 814.331 27.411 814.451 27.3815C814.572 27.3521 814.682 27.2895 814.769 27.2008C815.589 26.4464 816.487 25.7816 817.447 25.2175C817.573 25.153 817.676 25.053 817.744 24.9301C817.813 24.8071 817.844 24.6665 817.833 24.526C817.823 24.3855 817.771 24.2513 817.685 24.1401C817.598 24.0289 817.481 23.9457 817.348 23.9009C809.444 21.0843 799.827 20.7177 799.827 13.2347Z" fill="#E5E5E5"/>
<path d="M813.645 46.3303C813.569 46.2224 813.466 46.1373 813.346 46.0844C813.225 46.0315 813.093 46.0128 812.962 46.0304C811.817 46.2007 810.66 46.2898 809.502 46.297C805.712 46.275 801.968 45.4694 798.503 43.9304C798.379 43.8732 798.274 43.7815 798.2 43.6663C798.127 43.5512 798.087 43.4173 798.087 43.2805L797.971 39.1306C797.969 39.0305 797.947 38.9318 797.904 38.8409C797.862 38.7501 797.802 38.6691 797.727 38.6031C797.651 38.5371 797.563 38.4877 797.468 38.458C797.372 38.4283 797.271 38.419 797.172 38.4307L795.125 38.6306C794.949 38.6508 794.786 38.7347 794.666 38.8666C794.547 38.9984 794.479 39.1693 794.477 39.3473V45.8137C794.477 45.9402 794.509 46.0646 794.57 46.1753C794.631 46.286 794.719 46.3795 794.826 46.447C799.566 49.2373 804.986 50.6565 810.483 50.5468C812.185 50.55 813.883 50.3994 815.558 50.0968C815.692 50.0745 815.817 50.0143 815.919 49.9233C816.02 49.8323 816.093 49.7144 816.13 49.5832C816.166 49.452 816.165 49.3131 816.126 49.1827C816.086 49.0523 816.011 48.9358 815.908 48.8469C815.057 48.0998 814.298 47.2551 813.645 46.3303Z" fill="#E5E5E5"/>
<path d="M825.509 46.8981C823.758 46.9014 822.045 46.3842 820.587 45.412C819.129 44.4397 817.992 43.0562 817.319 41.4364C816.647 39.8166 816.469 38.0333 816.809 36.3123C817.148 34.5913 817.99 33.0099 819.227 31.7683C820.465 30.5267 822.042 29.6806 823.76 29.3371C825.477 28.9937 827.258 29.1683 828.876 29.8388C830.495 30.5094 831.878 31.6458 832.852 33.1042C833.825 34.5626 834.345 36.2775 834.345 38.0318C834.345 40.3804 833.414 42.6331 831.758 44.2953C830.101 45.9576 827.854 46.8937 825.509 46.8981ZM825.509 33.8487C824.679 33.8454 823.866 34.0893 823.173 34.5495C822.481 35.0097 821.941 35.6655 821.622 36.4336C821.303 37.2017 821.218 38.0475 821.379 38.8637C821.541 39.6799 821.94 40.4298 822.528 41.0182C823.115 41.6065 823.864 42.0069 824.679 42.1684C825.494 42.3299 826.338 42.2453 827.105 41.9254C827.872 41.6054 828.526 41.0646 828.986 40.3714C829.445 39.6782 829.689 38.8639 829.686 38.0318C829.681 36.9237 829.24 35.8623 828.458 35.0787C827.675 34.2952 826.616 33.853 825.509 33.8487Z" fill="url(#paint1_radial_169_2977)"/>
<defs>
<radialGradient id="paint0_radial_169_2977" cx="0" cy="0" r="1" gradientUnits="userSpaceOnUse" gradientTransform="translate(176.618 31.4204) rotate(-155.442) scale(19.2846 13.8134)">
<stop stop-color="#C6B38A"/>
<stop offset="0.463601" stop-color="#F3C691"/>
<stop offset="1" stop-color="#B4703E"/>
</radialGradient>
<radialGradient id="paint1_radial_169_2977" cx="0" cy="0" r="1" gradientUnits="userSpaceOnUse" gradientTransform="translate(839.563 43.8047) rotate(-155.442) scale(19.2846 13.8134)">
<stop stop-color="#C6B38A"/>
<stop offset="0.463601" stop-color="#F3C691"/>
<stop offset="1" stop-color="#B4703E"/>
</radialGradient>
</defs>
</svg>

<svg xmlns="http://www.w3.org/2000/svg" width="835" height="65" fill="none" xmlns:v="https://vecta.io/nano"><path d="M33.86 46.58h2.579a.73.73 0 0 0 .586-.31c.066-.094.11-.203.127-.317a.74.74 0 0 0-.03-.34l-2.745-7.783a.74.74 0 0 0-.265-.349.73.73 0 0 0-.417-.135H12.912c-.152 0-.3.048-.423.138s-.214.217-.26.362l-2.696 7.766c-.037.109-.047.226-.03.34a.73.73 0 0 0 .127.317.74.74 0 0 0 .256.225.73.73 0 0 0 .33.085h3.328a.73.73 0 0 1 .732.717v2.45c0 .194-.077.381-.215.519a.73.73 0 0 1-.518.215H.732a.73.73 0 0 1-.518-.215C.077 50.128 0 49.941 0 49.747v-2.45c0-.096.019-.19.056-.278s.091-.168.159-.235.149-.119.238-.154a.72.72 0 0 1 .279-.05H4.16c.15.001.296-.045.419-.132a.71.71 0 0 0 .263-.352L20.998 1.299c.045-.136.129-.256.241-.345a.73.73 0 0 1 .391-.155h3.328a.75.75 0 0 1 .682.483L42.28 46.08a.75.75 0 0 0 .682.483h3.661a.73.73 0 0 1 .732.717v2.45c0 .194-.077.381-.215.519a.73.73 0 0 1-.518.215H33.86a.73.73 0 0 1-.507-.221c-.134-.137-.209-.321-.209-.513v-2.433a.72.72 0 0 1 .209-.507.71.71 0 0 1 .506-.21zM14.609 33.814h17.288a.73.73 0 0 0 .595-.315c.067-.096.11-.207.125-.324s.002-.235-.038-.345L23.777 8.165a.72.72 0 0 0-.259-.362c-.122-.09-.271-.139-.423-.139s-.3.049-.423.139-.213.217-.259.362l-8.486 24.682c-.037.109-.047.226-.03.34a.73.73 0 0 0 .713.627zM338.753.532c11.531 0 20.882 5.816 20.882 25.266 0 15.816-9.351 24.999-20.882 24.999s-20.948-5.783-20.948-24.999c0-15.816 9.401-25.266 20.948-25.266zm0 45.965c8.852 0 16.073-7.366 16.073-20.849 0-15.966-7.221-20.849-16.073-20.849s-16.073 7.45-16.073 20.849c0 16.166 7.221 20.849 16.073 20.849zM476.359 1.549a.74.74 0 0 1 .215-.519.73.73 0 0 1 .517-.215h16.34c9.484 0 15.225 4.117 15.225 12.699 0 5.75-4.909 12.2-8.137 14.466a.72.72 0 0 0-.292.443c-.037.18-.004.367.093.523l10.599 17.283a.73.73 0 0 0 .615.35h3.91a.71.71 0 0 1 .506.21.72.72 0 0 1 .21.507v2.45c0 .192-.075.376-.209.513a.73.73 0 0 1-.507.221h-6.655a.73.73 0 0 1-.353-.096c-.108-.061-.198-.149-.263-.254l-12.18-19.666a.73.73 0 0 0-.262-.255.74.74 0 0 0-.353-.096h-9.135a.73.73 0 0 0-.732.733v14.999a.74.74 0 0 0 .214.519.73.73 0 0 0 .518.215h3.71a.71.71 0 0 1 .517.204.72.72 0 0 1 .216.513v2.45c0 .194-.078.381-.215.518a.73.73 0 0 1-.518.215h-12.845a.73.73 0 0 1-.732-.733v-2.45a.73.73 0 0 1 .22-.508c.137-.134.321-.209.512-.209h2.862a.73.73 0 0 0 .732-.734V5.449a.73.73 0 0 0-.22-.508c-.137-.134-.321-.209-.512-.209h-2.862a.73.73 0 0 1-.732-.734l-.017-2.45zm9.135 3.9v19.999a.74.74 0 0 0 .22.508c.137.134.321.209.512.209h10.683a.73.73 0 0 0 .482-.183c1.847-1.667 6.456-6.216 6.456-12.083s-3.827-9.216-10.765-9.216h-6.856a.73.73 0 0 0-.288.059.74.74 0 0 0-.242.168c-.068.072-.121.156-.156.249a.74.74 0 0 0-.046.291zm149.201-3.9c0-.192.075-.376.209-.513s.316-.216.507-.221h16.339c11.648 0 21.115 5.816 21.115 23.699 0 21.782-8.935 25.966-22.878 25.966h-14.576a.73.73 0 0 1-.507-.221c-.134-.137-.209-.321-.209-.513v-2.45c0-.094.019-.187.055-.274a.73.73 0 0 1 .155-.233.71.71 0 0 1 .232-.155c.087-.036.18-.055.274-.055h2.878a.73.73 0 0 0 .483-.261c.121-.146.18-.334.166-.523V5.449a.72.72 0 0 0-.209-.507.71.71 0 0 0-.506-.21h-2.879a.73.73 0 0 1-.715-.734l.066-2.45zm9.135 3.9v40.348c0 .192.075.376.209.513a.73.73 0 0 0 .507.221h5.091c9.984 0 18.403-1.917 18.403-21.666 0-15.249-7.787-20.132-16.639-20.132h-6.855c-.19 0-.372.076-.506.21a.72.72 0 0 0-.21.507z" fill="#e5e5e5"/><path d="M162.547 34.514c-1.75 0-3.462-.52-4.918-1.494s-2.59-2.359-3.26-3.979-.845-3.403-.504-5.123 1.185-3.3 2.423-4.54 2.815-2.084 4.532-2.427a8.84 8.84 0 0 1 5.115.505 8.85 8.85 0 0 1 3.972 3.265c.973 1.458 1.492 3.172 1.492 4.926 0 2.351-.932 4.607-2.592 6.269s-3.912 2.597-6.26 2.597zm0-13.049c-.83 0-1.641.247-2.331.709a4.2 4.2 0 0 0-1.544 1.887c-.317.768-.399 1.614-.236 2.429a4.2 4.2 0 0 0 1.152 2.15 4.19 4.19 0 0 0 2.151 1.146c.815.16 1.659.075 2.424-.246a4.2 4.2 0 0 0 1.879-1.554c.458-.693.702-1.506.698-2.338 0-.551-.108-1.096-.319-1.605a4.18 4.18 0 0 0-.91-1.359c-.389-.389-.852-.696-1.36-.906s-1.054-.316-1.604-.314z" fill="url(#A)"/><path d="M202.131 25.798c0-19.449-9.351-25.266-20.898-25.266a19.46 19.46 0 0 0-9.977 2.701 19.5 19.5 0 0 0-7.195 7.432.72.72 0 0 0-.095.332.73.73 0 0 0 .071.338.72.72 0 0 0 .54.397 15.07 15.07 0 0 1 3.045.75.7.7 0 0 0 .865-.3c1.286-2.247 3.142-4.114 5.38-5.411s4.78-1.977 7.366-1.973c8.852 0 16.073 4.883 16.073 20.849 0 13.483-7.221 20.849-16.073 20.849-5.192 0-9.817-1.667-12.762-6.233-.087-.147-.224-.258-.386-.313s-.338-.05-.496.013a14.82 14.82 0 0 1-3.328.783c-.118.016-.23.061-.326.131a.72.72 0 0 0-.225.271.71.71 0 0 0-.068.345.71.71 0 0 0 .103.336c3.195 5.683 8.32 8.183 14.41 8.75a.7.7 0 0 1 .615.5c1.897 5.783 7.654 10.95 11.198 13.433.141.098.313.14.483.117l2.046-.2a.73.73 0 0 0 .392-.166.74.74 0 0 0 .234-.356c.041-.139.039-.287-.004-.426a.73.73 0 0 0-.239-.352c-3.328-2.533-7.72-6.666-9.451-11.666-.033-.102-.042-.211-.028-.317s.053-.208.112-.298a.71.71 0 0 1 .23-.22.72.72 0 0 1 .302-.099c10.183-1.267 18.086-10.183 18.086-24.732zm597.696-12.563c0-5.966 5.873-8.333 12.396-8.333 2.569-.011 5.135.196 7.67.617a.76.76 0 0 1 .616.633l.582 4.566c.014.097.048.19.098.274a.74.74 0 0 0 .197.214.73.73 0 0 0 .554.129l2.063-.333c.179-.033.34-.131.451-.276a.73.73 0 0 0 .148-.508l-.665-7.666a.75.75 0 0 0-.181-.415.74.74 0 0 0-.385-.235A49.48 49.48 0 0 0 811.274.535c-3.81.1-11.214 1.083-14.525 6.45-1.177 1.949-1.783 4.189-1.748 6.466 0 10.283 10.999 11.1 19.085 13.916.118.039.245.044.365.014s.231-.092.318-.181c.82-.754 1.718-1.419 2.678-1.983.126-.065.229-.165.297-.287a.71.71 0 0 0 .089-.404c-.01-.14-.062-.275-.148-.386a.72.72 0 0 0-.337-.239c-7.904-2.817-17.521-3.183-17.521-10.666zm13.818 33.095c-.076-.108-.179-.193-.299-.246a.71.71 0 0 0-.384-.054 24.73 24.73 0 0 1-3.46.267c-3.79-.022-7.534-.828-10.999-2.367a.72.72 0 0 1-.416-.65l-.116-4.15a.71.71 0 0 0-.067-.29c-.042-.091-.102-.172-.177-.238a.72.72 0 0 0-.259-.145c-.095-.03-.197-.039-.296-.027l-2.047.2c-.176.02-.339.104-.459.236a.73.73 0 0 0-.189.481v6.466a.75.75 0 0 0 .349.633c4.74 2.79 10.16 4.209 15.657 4.1 1.702.003 3.4-.147 5.075-.45a.72.72 0 0 0 .572-.514.73.73 0 0 0-.004-.401.72.72 0 0 0-.218-.336 14.4 14.4 0 0 1-2.263-2.517z" fill="#e5e5e5"/><path d="M825.509 46.898a8.84 8.84 0 0 1-4.922-1.486c-1.458-.972-2.595-2.356-3.268-3.976a8.88 8.88 0 0 1-.51-5.124c.339-1.721 1.181-3.302 2.418-4.544a8.85 8.85 0 0 1 4.533-2.431 8.84 8.84 0 0 1 5.116.502c1.619.671 3.002 1.807 3.976 3.265a8.88 8.88 0 0 1 1.493 4.928c0 2.349-.931 4.601-2.587 6.264s-3.904 2.598-6.249 2.603zm0-13.049c-.83-.003-1.643.241-2.336.701s-1.232 1.116-1.551 1.884a4.21 4.21 0 0 0-.243 2.43c.162.816.561 1.566 1.149 2.154a4.19 4.19 0 0 0 2.151 1.15c.815.162 1.659.077 2.426-.243s1.421-.861 1.881-1.554a4.21 4.21 0 0 0 .7-2.34c-.005-1.108-.446-2.169-1.228-2.953a4.19 4.19 0 0 0-2.949-1.23z" fill="url(#B)"/><defs><radialGradient id="A" cx="0" cy="0" r="1" gradientUnits="userSpaceOnUse" gradientTransform="translate(176.618 31.4204) rotate(-155.442) scale(19.2846 13.8134)"><stop stop-color="#c6b38a"/><stop offset=".464" stop-color="#f3c691"/><stop offset="1" stop-color="#b4703e"/></radialGradient><radialGradient id="B" cx="0" cy="0" r="1" gradientUnits="userSpaceOnUse" gradientTransform="translate(839.563 43.8047) rotate(-155.442) scale(19.2846 13.8134)"><stop stop-color="#c6b38a"/><stop offset=".464" stop-color="#f3c691"/><stop offset="1" stop-color="#b4703e"/></radialGradient></defs></svg>
